X: 36920
T: Shooting Star, The
R: reel
M: 4/4
K: Dmajor
|:F3E FDDE|FAEF D2 DE|FBBA BAFB|ABdf edBA|
F3E FDDE|FAEF D2 DE|FBBA BAFB|AFEF D2 DE:|
|:FADF Adfa|bafe dBBA|Beed efed|Beef edBA|
FADF Adfa|bafe dBBA|BdAB FAEF|D2 DE D4:|

